X: 5
T: The Morpeth Rant
R: reel
M: 4/4
L: 1/8
K: Dmaj
A2 | d2 AG FDFA | BGBd cABc | d2 AG FDFA | Bdce d2 A2 |
d2 AG FDFA | BGBd cABc | d2 AG FDFA | (3Bcd ce d2 de |
f2 fe fgaf | gfed cd e2 | f2 fe fgaf | edcB A2 Bc |
d2 AG FDFA | BGBd cABc | d2 AG FDFA | Bdce d2 ||


Tune 1310	Setting 1310

